packages/core/src/svgs/dck.svg

<svg width="24" height="24" viewBox="0 0 24 24" fill="none" xmlns="http://www.w3.org/2000/svg">
<g clip-path="url(#clip0_31_9046)">
<path d="M0 0H24V24H0V0Z" fill="url(#paint0_linear_31_9046)"/>
<path d="M17.4429 8.35693L17.4257 8.36122L9.17572 16.7784C9.06568 16.8926 8.93386 16.9836 8.78806 17.046C8.64225 17.1084 8.48542 17.141 8.32682 17.1418C8.16822 17.1426 8.01106 17.1116 7.86464 17.0507C7.71821 16.9897 7.58549 16.9 7.4743 16.7869L3.84429 13.1141C2.95715 12.2226 3.57858 10.7141 4.81715 10.7141H6.9043C7.26858 10.7141 7.62001 10.8555 7.88572 11.1126L9.81429 12.9684L8.82858 14.0398L6.90001 12.2141H4.94144L8.32287 15.5741L16.4143 7.29408C16.5478 7.15615 16.7076 7.0464 16.8843 6.97131C17.061 6.89623 17.2509 6.85733 17.4429 6.85693H19.0114C20.4043 6.85693 21.0986 8.58836 20.1043 9.5955L13.0072 16.7655C12.8886 16.8854 12.7471 16.9804 12.5911 17.0446C12.4352 17.1089 12.2679 17.1411 12.0992 17.1395C11.9306 17.1379 11.7639 17.1025 11.6092 17.0353C11.4545 16.9681 11.3149 16.8705 11.1986 16.7484L10.7143 16.2469L11.7429 15.2141L12.1114 15.5998L19.0972 8.57122C19.1743 8.49408 19.1186 8.35693 19.0114 8.35693H17.4386H17.4429Z" fill="url(#paint1_linear_31_9046)"/>
</g>
<defs>
<linearGradient id="paint0_linear_31_9046" x1="21.4286" y1="5.35714" x2="4.28571" y2="20.7857" gradientUnits="userSpaceOnUse">
<stop offset="0.33" stop-color="#021826"/>
<stop offset="0.9" stop-color="#0E4460"/>
</linearGradient>
<linearGradient id="paint1_linear_31_9046" x1="20.5586" y1="8.42122" x2="3.42858" y2="8.42122" gradientUnits="userSpaceOnUse">
<stop stop-color="#097CB8"/>
<stop offset="1" stop-color="#8ADECF"/>
</linearGradient>
<clipPath id="clip0_31_9046">
<rect width="24" height="24" fill="white"/>
</clipPath>
</defs>
</svg>

<svg xmlns="http://www.w3.org/2000/svg" width="24" height="24" fill="none" viewBox="0 0 24 24"><g clip-path="url(#a)"><path fill="url(#b)" d="M0 0h24v24H0z"/><path fill="url(#c)" d="m17.443 8.357-.017.004-8.25 8.417a1.187 1.187 0 0 1-1.702.009l-3.63-3.673c-.887-.891-.265-2.4.973-2.4h2.087c.365 0 .716.141.982.399l1.928 1.855-.985 1.072L6.9 12.214H4.941l3.382 3.36 8.091-8.28a1.44 1.44 0 0 1 1.029-.437h1.568c1.393 0 2.088 1.731 1.093 2.738l-7.097 7.17a1.26 1.26 0 0 1-1.808-.017l-.485-.501 1.029-1.033.368.386 6.986-7.029c.077-.077.022-.214-.086-.214H17.44z"/></g><defs><linearGradient id="b" x1="21.429" x2="4.286" y1="5.357" y2="20.786" gradientUnits="userSpaceOnUse"><stop offset=".33" stop-color="#021826"/><stop offset=".9" stop-color="#0E4460"/></linearGradient><linearGradient id="c" x1="20.559" x2="3.429" y1="8.421" y2="8.421" gradientUnits="userSpaceOnUse"><stop stop-color="#097CB8"/><stop offset="1" stop-color="#8ADECF"/></linearGradient><clipPath id="a"><path fill="#fff" d="M0 0h24v24H0z"/></clipPath></defs></svg>
